X: 117
T:Farewell to Miltown
M:4/4
L:1/8
K:G
|EAA^G ~A3 B |c3 B AGEF |G DG EGDE |G2 (3FGA GEDG |EAA^G ~A3 B||
cdBc AGEF |1 G2 GF GABd | e2 e2 dB BA A2 :|2 G2 BG DGBd |e2 dB BAcd ||
| eagb ~a3 b | cabg aedB | d3 e g3 b | a3 b gafd | 
eagb ~a3 b |cabg gfef | gee=f edBA | GABG A4 :|
